X: 177
T:Gray Ey'd Morn,The. HA.176
T:Bonny Gray Ey'd Morn.aka. HA.176
M:C
L:1/8
Q:1/4=120
C:Bonny Gray Ey'd Morn.aka.
S:Henry Atkinson's original MS,Hartburn,N'umberland,1694.
O:England
A:Hartburn,Northumberland
N:Rebeamed for clarity.cf Playford DM eds 9B(1698)..CGP.
H:1/8
Z:vmp.Neil Brookes, Jan.2004
K:C
G|(cB)(cd) e2(dc)|(ef)g2 g3a|(ga)(ge) (fe)(dc)|(Bc)d2 d3e|!
(fe)(dc) B2(AB)|(cB)(AG) F2(ED)|\
(GB)(Ac) (Bd)(ed)|B2(AG) G3||!
d|dBdB G3g|gege c2e2|(fA)(dB) G2e2|c2(BA) A3F|!
A>B (c/2B/2)(c/2A/2) f3e|(eA) (A/2B/2)c B2(AG)|\
(ce)(df) (eg)(ag)|e2(dc) c3|]
